X:98
T:De Bon Matin Me Suis Lev
M:6/8
L:1/8
N:Assez anim
N:La Bourre 4th edition 1929, page 94
Z:Steve Mansfield www.lesession.co.uk June 2012
K:G
D E F | G2 G (EF) G | A2 G/ F/ E3 | 
E F G A2 A | (D2 E) D3 - | D2 z c B c | d2 e (dc) B |
A2 A d2 c | B2 A (GFG) | !fermata! A3 D E F | 
G3 A B c | d2 A d2 c | B2 A (GEF) | G6 |]

